X:871
T:Covington Waltz
S:Bruce & Emmett's Drummers and Fifers Guide (1862), p. 87
M:3/4
L:1/8
Q:1/4=180
K:D
%%MIDI program 72
%%MIDI transpose 8
%%MIDI ratio 3 1
A2|fz d3B|Az F3F|EFGABA|Gz F3A|fz d3B|Az F3D|
EGFEDC|Ez D2::cd|e2 ({B}A^G)A2|f2({B}A^G)A2|e2({B}A^G)A2|a2({B}A^G)A2|
e2({B}A^G)A2|dz F3F|EGFEDC|Ez D2::A2|(Tf6|g)fedcB|
Adfedc|BABcde|(Tf6|g)fedcB|Adfedc|BABcde|fdAfdA|
F(DB).A.G.A,|(GA,)(CEG).A,|Ez D2::cd|(eA).c.e(aA)|(fA).d.f(aA)|
(eA).c.e(aA)|(fA).d.f a2|fdAfdA|(FDB).A(GC)|(GA,).CEGA|Ez D2:|
